UI/Core-UI/SVG/settings_outline_24px.svg

<svg width="24" height="24" viewBox="0 0 24 24" fill="none" xmlns="http://www.w3.org/2000/svg">
<path d="M20.2701 12C20.2708 11.689 20.2507 11.3783 20.2101 11.07L22.1001 9.48L19.1001 4.33L16.8501 5.18C16.3647 4.81807 15.8417 4.50962 15.2901 4.26L14.7701 2H9.18011L8.64011 4.26C8.08536 4.5096 7.55901 4.81804 7.07011 5.18L4.86011 4.34L1.86011 9.48L3.70011 11.05C3.66299 11.3586 3.64629 11.6692 3.65011 11.98C3.64655 12.2908 3.66325 12.6014 3.70011 12.91L1.90011 14.48L4.90011 19.62L7.12011 18.78C7.60547 19.1419 8.12851 19.4504 8.68011 19.7L9.18011 22H14.7701L15.3201 19.72C15.8705 19.4681 16.3933 19.1598 16.8801 18.8L19.1301 19.65L22.1301 14.52L20.2501 12.93C20.277 12.6208 20.2837 12.3101 20.2701 12ZM18.2701 11.29C18.2701 11.52 18.2701 11.76 18.2701 12C18.2701 12.24 18.2701 12.48 18.2701 12.71L18.1501 13.77L18.9701 14.46L19.5601 14.97L18.2901 17.18L17.6301 16.93L16.6301 16.53L15.7501 17.19C15.3843 17.4668 14.9884 17.7016 14.5701 17.89L13.6701 18.29L13.4401 19.29L13.2601 20.04H10.7601L10.5801 19.29L10.3601 18.29L9.46011 17.89C9.04178 17.7016 8.64596 17.4668 8.28011 17.19L7.40011 16.53L6.40011 16.93L5.77011 17.16L4.46011 14.92L5.00011 14.44L5.82011 13.75L5.70011 12.69C5.64676 12.2182 5.64676 11.7418 5.70011 11.27L5.82011 10.21L5.00011 9.52L4.46011 9L5.74011 6.82L6.36011 7.05L7.36011 7.44L8.24011 6.79C8.60943 6.51302 9.00858 6.27823 9.43011 6.09L10.3301 5.68L10.5501 4.68L10.7601 4H13.2001L13.3701 4.75L13.6001 5.75L14.5001 6.15C14.9194 6.33863 15.3181 6.56984 15.6901 6.84L16.5701 7.5L17.5701 7.11L18.2301 6.86L19.5301 9L18.9401 9.49L18.1101 10.18L18.2701 11.29ZM12.0001 7.48C11.1101 7.48 10.2401 7.74392 9.50004 8.23839C8.76002 8.73285 8.18324 9.43566 7.84265 10.2579C7.50206 11.0802 7.41294 11.985 7.58657 12.8579C7.76021 13.7308 8.18879 14.5326 8.81813 15.162C9.44746 15.7913 10.2493 16.2199 11.1222 16.3935C11.9951 16.5672 12.8999 16.4781 13.7222 16.1375C14.5445 15.7969 15.2473 15.2201 15.7417 14.4801C16.2362 13.74 16.5001 12.87 16.5001 11.98C16.4975 10.7873 16.0225 9.64428 15.1792 8.80094C14.3358 7.9576 13.1928 7.48264 12.0001 7.48ZM12.0001 14.48C11.5057 14.48 11.0223 14.3334 10.6112 14.0587C10.2001 13.784 9.87963 13.3935 9.69041 12.9367C9.50119 12.4799 9.45168 11.9772 9.54814 11.4923C9.64461 11.0073 9.88271 10.5619 10.2323 10.2122C10.582 9.8626 11.0274 9.6245 11.5124 9.52804C11.9973 9.43157 12.5 9.48108 12.9568 9.6703C13.4136 9.85952 13.8041 10.18 14.0788 10.5911C14.3535 11.0022 14.5001 11.4855 14.5001 11.98C14.5001 12.643 14.2367 13.2789 13.7679 13.7478C13.299 14.2166 12.6631 14.48 12.0001 14.48Z" fill="#0F1621"/>
</svg>

<svg xmlns="http://www.w3.org/2000/svg" width="24" height="24" viewBox="0 0 24 24"><rect width="24" height="24" style="fill:none"/><path d="M20.27,12a7,7,0,0,0-.06-.93L22.1,9.48l-3-5.15-2.25.85a8.41,8.41,0,0,0-1.56-.92L14.77,2H9.18L8.64,4.26a8.5,8.5,0,0,0-1.57.92L4.86,4.34l-3,5.14,1.84,1.57a7.06,7.06,0,0,0-.05.93,7.15,7.15,0,0,0,.05.93L1.9,14.48l3,5.14,2.22-.84a8.41,8.41,0,0,0,1.56.92L9.18,22h5.59l.55-2.28a8.75,8.75,0,0,0,1.56-.92l2.25.85,3-5.13-1.88-1.59A7.14,7.14,0,0,0,20.27,12Zm-2-.71c0,.23,0,.47,0,.71s0,.48,0,.71l-.12,1.06.82.69.59.51-1.27,2.21-.66-.25-1-.4-.88.66a6.12,6.12,0,0,1-1.18.7l-.9.4-.23,1-.18.75H10.76l-.18-.75-.22-1-.9-.4a6.12,6.12,0,0,1-1.18-.7l-.88-.66-1,.4-.63.23L4.46,14.92,5,14.44l.82-.69-.12-1.06a6.32,6.32,0,0,1,0-1.42l.12-1.06L5,9.52,4.46,9,5.74,6.82l.62.23,1,.39.88-.65a6.19,6.19,0,0,1,1.19-.7l.9-.41.22-1L10.76,4H13.2l.17.75.23,1,.9.4a6.71,6.71,0,0,1,1.19.69l.88.66,1-.39.66-.25L19.53,9l-.59.49-.83.69ZM12,7.48a4.5,4.5,0,1,0,4.5,4.5A4.51,4.51,0,0,0,12,7.48Zm0,7a2.5,2.5,0,1,1,2.5-2.5A2.5,2.5,0,0,1,12,14.48Z"/></svg>
